48x48/apps/fifteenpuzzle.svg

<svg xmlns="http://www.w3.org/2000/svg" width="48" height="48" version="1.1">
 <rect style="opacity:0.2" width="39" height="39" x="5" y="5" rx="3" ry="3"/>
 <path style="fill:#f4f4f7" d="M 8 4 C 6.338 4 5 5.338 5 7 L 5 17 L 18 17 L 18 4 L 8 4 z"/>
 <rect style="fill:#f3f3f3" width="13" height="13" x="18" y="4"/>
 <path style="fill:#f4f4f7" d="m 41,4 c 1.662,0 3,1.338 3,3 V 17 H 31 V 4 Z"/>
 <rect style="fill:#f4f4f7" width="13" height="13" x="18" y="17"/>
 <rect style="fill:#f3f3f3" width="13" height="13" x="5" y="17"/>
 <rect style="fill:#f3f3f3" width="13" height="13" x="31" y="17"/>
 <path style="fill:#bebebb" d="M 8,43 C 6.338,43 5,41.662 5,40 V 30 h 13 v 13 z"/>
 <rect style="fill:#f3f3f3" width="13" height="13" x="18" y="-43" transform="scale(1,-1)"/>
 <path style="fill:#f4f4f7" d="m 41,43 c 1.662,0 3,-1.338 3,-3 V 30 H 31 v 13 z"/>
 <path style="opacity:0.1" d="m 44,10 a 16.694556,15.310932 0 0 0 -8,8 h 2.847656 A 13.991486,12.831889 0 0 1 44,12.742188 Z m -26,0.841797 v 2.617187 C 20.08,14.442778 22.424398,15 24.90625,15 A 16.170469,16.170469 0 0 0 31,13.816406 v -2.533203 c -1.816559,0.906176 -3.889102,1.421875 -6.09375,1.421875 -2.540353,0 -4.906544,-0.68334 -6.90625,-1.863281 z M 9.9238281,18 A 13.843781,13.843781 0 0 1 11.314453,24.066406 13.824688,13.824687 0 0 1 9.4628906,31 H 12.376953 A 16.361313,16.361312 0 0 0 13.914062,24.066406 16.369031,16.369031 0 0 0 12.75,18 Z M 18,23 v 2.535156 A 12.611992,12.254855 0 0 1 23.431641,31 h 0.732421 A 16.369031,16.369031 0 0 0 23,37.066406 16.361313,16.361312 0 0 0 24.537109,44 h 2.916016 a 13.824281,13.824281 0 0 1 -1.853516,-6.933594 c 0,-2.1775 0.500938,-4.235031 1.390625,-6.066406 H 26 a 15.048932,14.622788 0 0 0 -8,-8 z m 19.90625,0.04102 c -2.48185,0 -4.82663,0.559173 -6.90625,1.542968 v 2.615235 c 1.99971,-1.179941 4.36552,-1.863282 6.90625,-1.863281 2.20427,0 4.27719,0.515315 6.09375,1.421874 V 24.224609 A 16.170471,16.170471 0 0 0 37.90625,23.041016 Z M 36,31 a 17.527745,17.025378 0 0 0 8,8 V 35.953125 A 14.685371,14.26447 0 0 1 39.083984,31 Z"/>
 <path style="fill:#2e7bdd" d="M 44 9 A 16.694556 15.310932 0 0 0 36 17 L 38.847656 17 A 13.991486 12.831889 0 0 1 44 11.742188 L 44 9 z M 18 9.8417969 L 18 12.458984 C 20.08 13.442778 22.424398 14 24.90625 14 A 16.170469 16.170469 0 0 0 31 12.816406 L 31 10.283203 C 29.183441 11.189379 27.110898 11.705078 24.90625 11.705078 C 22.365897 11.705078 19.999706 11.021738 18 9.8417969 z M 9.9238281 17 A 13.843781 13.843781 0 0 1 11.314453 23.066406 A 13.824688 13.824687 0 0 1 9.4628906 30 L 12.376953 30 A 16.361313 16.361312 0 0 0 13.914062 23.066406 A 16.369031 16.369031 0 0 0 12.75 17 L 9.9238281 17 z M 18 22 L 18 24.535156 A 12.611992 12.254855 0 0 1 23.431641 30 L 24.164062 30 A 16.369031 16.369031 0 0 0 23 36.066406 A 16.361313 16.361312 0 0 0 24.537109 43 L 27.453125 43 A 13.824281 13.824281 0 0 1 25.599609 36.066406 C 25.599609 33.888906 26.100547 31.831375 26.990234 30 L 26 30 A 15.048932 14.622788 0 0 0 18 22 z M 37.90625 22.041016 C 35.4244 22.041016 33.07962 22.600189 31 23.583984 L 31 26.199219 C 32.99971 25.019278 35.36552 24.335937 37.90625 24.335938 C 40.11052 24.335938 42.18344 24.851253 44 25.757812 L 44 23.224609 A 16.170471 16.170471 0 0 0 37.90625 22.041016 z M 36 30 A 17.527745 17.025378 0 0 0 44 38 L 44 34.953125 A 14.685371 14.26447 0 0 1 39.083984 30 L 36 30 z"/>
 <path style="opacity:0.2;fill:#f4f4f7" d="M 8 4 C 6.338 4 5 5.338 5 7 L 5 8 C 5 6.338 6.338 5 8 5 L 41 5 C 42.662 5 44 6.338 44 8 L 44 7 C 44 5.338 42.662 4 41 4 L 8 4 z"/>
</svg>

<svg xmlns="http://www.w3.org/2000/svg" width="48" height="48"><rect style="opacity:.2" width="39" height="39" x="5" y="5" rx="3" ry="3"/><path style="fill:#f4f4f7" d="M8 4C6.338 4 5 5.338 5 7v10h13V4H8z"/><path style="fill:#f3f3f3" d="M18 4h13v13H18z"/><path style="fill:#f4f4f7" d="M41 4c1.662 0 3 1.338 3 3v10H31V4zM18 17h13v13H18z"/><path style="fill:#f3f3f3" d="M5 17h13v13H5zM31 17h13v13H31z"/><path style="fill:#bebebb" d="M8 43c-1.662 0-3-1.338-3-3V30h13v13z"/><path style="fill:#f3f3f3" transform="scale(1 -1)" d="M18-43h13v13H18z"/><path style="fill:#f4f4f7" d="M41 43c1.662 0 3-1.338 3-3V30H31v13z"/><path style="opacity:.1" d="M44 10a16.695 15.31 0 0 0-8 8h2.848A13.991 12.832 0 0 1 44 12.742zm-26 .842v2.617A16.121 16.121 0 0 0 24.906 15 16.17 16.17 0 0 0 31 13.816v-2.533a13.623 13.623 0 0 1-6.094 1.422c-2.54 0-4.906-.683-6.906-1.863zM9.924 18a13.844 13.844 0 0 1 1.39 6.066A13.825 13.825 0 0 1 9.463 31h2.914a16.361 16.361 0 0 0 1.537-6.934A16.369 16.369 0 0 0 12.75 18zM18 23v2.535A12.612 12.255 0 0 1 23.432 31h.732A16.369 16.369 0 0 0 23 37.066 16.361 16.361 0 0 0 24.537 44h2.916a13.824 13.824 0 0 1-1.853-6.934c0-2.177.5-4.235 1.39-6.066H26a15.049 14.623 0 0 0-8-8zm19.906.041c-2.482 0-4.826.56-6.906 1.543v2.615c2-1.18 4.366-1.863 6.906-1.863 2.205 0 4.277.515 6.094 1.422v-2.533a16.17 16.17 0 0 0-6.094-1.184zM36 31a17.528 17.025 0 0 0 8 8v-3.047A14.685 14.264 0 0 1 39.084 31z"/><path style="fill:#2e7bdd" d="M44 9a16.695 15.31 0 0 0-8 8h2.848A13.991 12.832 0 0 1 44 11.742V9zm-26 .842v2.617A16.121 16.121 0 0 0 24.906 14 16.17 16.17 0 0 0 31 12.816v-2.533a13.623 13.623 0 0 1-6.094 1.422c-2.54 0-4.906-.683-6.906-1.863zM9.924 17a13.844 13.844 0 0 1 1.39 6.066A13.825 13.825 0 0 1 9.463 30h2.914a16.361 16.361 0 0 0 1.537-6.934A16.369 16.369 0 0 0 12.75 17H9.924zM18 22v2.535A12.612 12.255 0 0 1 23.432 30h.732A16.369 16.369 0 0 0 23 36.066 16.361 16.361 0 0 0 24.537 43h2.916a13.824 13.824 0 0 1-1.853-6.934c0-2.177.5-4.235 1.39-6.066H26a15.049 14.623 0 0 0-8-8zm19.906.041c-2.482 0-4.826.56-6.906 1.543v2.615c2-1.18 4.366-1.863 6.906-1.863 2.205 0 4.277.515 6.094 1.422v-2.533a16.17 16.17 0 0 0-6.094-1.184zM36 30a17.528 17.025 0 0 0 8 8v-3.047A14.685 14.264 0 0 1 39.084 30H36z"/><path style="opacity:.2;fill:#f4f4f7" d="M8 4C6.338 4 5 5.338 5 7v1c0-1.662 1.338-3 3-3h33c1.662 0 3 1.338 3 3V7c0-1.662-1.338-3-3-3H8z"/></svg>
